X:1
T: Miss Kelly's Reel
C:
R:Reel
Q: 232
K:A
M:4/4
L:1/8
|:d2 ad fd ad|da af ec Ac|d2 ad fd ad|bg af ec Ac|
d2 ad fd ad|d2 af ec Ac|de fg a2 ga|bg af ec Ac|
df Bf df Bf|df Bf ec Ac|de fg a2 ga|bg af ec Ac|
df Bf df Bf|df Bf ec Ac|de fg a2 ga|bg af ec Ac:|
